images/28686.svg

<?xml version="1.0" encoding="UTF-8"?>
<svg xmlns="http://www.w3.org/2000/svg" xmlns:xlink="http://www.w3.org/1999/xlink" width="300pt" height="300pt" viewBox="0 0 300 300" version="1.1">
<defs>
<g>
<symbol overflow="visible" id="glyph0-0">
<path style="stroke:none;" d="M 0.75 2.65625 L 0.75 -10.578125 L 8.25 -10.578125 L 8.25 2.65625 Z M 1.59375 1.8125 L 7.40625 1.8125 L 7.40625 -9.734375 L 1.59375 -9.734375 Z M 1.59375 1.8125 "/>
</symbol>
<symbol overflow="visible" id="glyph0-1">
<path style="stroke:none;" d="M 1.46875 -10.9375 L 7.75 -10.9375 L 7.75 -9.6875 L 2.953125 -9.6875 L 2.953125 -6.46875 L 7.28125 -6.46875 L 7.28125 -5.21875 L 2.953125 -5.21875 L 2.953125 0 L 1.46875 0 Z M 1.46875 -10.9375 "/>
</symbol>
<symbol overflow="visible" id="glyph0-2">
<path style="stroke:none;" d="M 1.46875 -10.9375 L 3.46875 -10.9375 L 8.3125 -1.78125 L 8.3125 -10.9375 L 9.75 -10.9375 L 9.75 0 L 7.75 0 L 2.90625 -9.140625 L 2.90625 0 L 1.46875 0 Z M 1.46875 -10.9375 "/>
</symbol>
</g>
</defs>
<g id="surface18121">
<rect x="0" y="0" width="300" height="300" style="fill:rgb(100%,100%,100%);fill-opacity:1;stroke:none;"/>
<path style="fill:none;stroke-width:1.2;stroke-linecap:butt;stroke-linejoin:miter;stroke:rgb(20%,80%,80%);stroke-opacity:1;stroke-miterlimit:10;" d="M 35.25 234.011719 L 51.695312 227.085938 "/>
<path style="fill:none;stroke-width:1.2;stroke-linecap:butt;stroke-linejoin:miter;stroke:rgb(0%,0%,0%);stroke-opacity:1;stroke-miterlimit:10;" d="M 51.695312 227.085938 L 68.136719 220.160156 "/>
<path style=" stroke:none;fill-rule:nonzero;fill:rgb(100%,100%,100%);fill-opacity:1;" d="M 26.25 225.011719 L 35.25 225.011719 L 35.25 243.011719 L 26.25 243.011719 Z M 26.25 225.011719 "/>
<g style="fill:rgb(20%,80%,80%);fill-opacity:1;">
  <use xlink:href="#glyph0-1" x="26.25" y="238.625977"/>
</g>
<path style="fill:none;stroke-width:1.2;stroke-linecap:butt;stroke-linejoin:miter;stroke:rgb(0%,0%,0%);stroke-opacity:1;stroke-miterlimit:10;" d="M 68.136719 220.160156 L 72.585938 184.753906 "/>
<path style="fill:none;stroke-width:1.2;stroke-linecap:butt;stroke-linejoin:miter;stroke:rgb(0%,0%,0%);stroke-opacity:1;stroke-miterlimit:10;" d="M 76.914062 217.667969 L 80.472656 189.34375 "/>
<path style="fill:none;stroke-width:1.2;stroke-linecap:butt;stroke-linejoin:miter;stroke:rgb(0%,0%,0%);stroke-opacity:1;stroke-miterlimit:10;" d="M 96.574219 241.71875 L 68.136719 220.160156 "/>
<path style="fill:none;stroke-width:1.2;stroke-linecap:butt;stroke-linejoin:miter;stroke:rgb(0%,0%,0%);stroke-opacity:1;stroke-miterlimit:10;" d="M 72.585938 184.753906 L 105.472656 170.90625 "/>
<path style="fill:none;stroke-width:1.2;stroke-linecap:butt;stroke-linejoin:miter;stroke:rgb(0%,0%,0%);stroke-opacity:1;stroke-miterlimit:10;" d="M 105.472656 170.90625 L 133.910156 192.460938 "/>
<path style="fill:none;stroke-width:1.2;stroke-linecap:butt;stroke-linejoin:miter;stroke:rgb(0%,0%,0%);stroke-opacity:1;stroke-miterlimit:10;" d="M 103.246094 179.753906 L 125.996094 196.996094 "/>
<path style="fill:none;stroke-width:1.2;stroke-linecap:butt;stroke-linejoin:miter;stroke:rgb(0%,0%,0%);stroke-opacity:1;stroke-miterlimit:10;" d="M 133.910156 192.460938 L 129.460938 227.867188 "/>
<path style="fill:none;stroke-width:1.2;stroke-linecap:butt;stroke-linejoin:miter;stroke:rgb(0%,0%,0%);stroke-opacity:1;stroke-miterlimit:10;" d="M 133.910156 192.460938 L 166.800781 178.613281 "/>
<path style="fill:none;stroke-width:1.2;stroke-linecap:butt;stroke-linejoin:miter;stroke:rgb(0%,0%,0%);stroke-opacity:1;stroke-miterlimit:10;" d="M 129.460938 227.867188 L 96.574219 241.71875 "/>
<path style="fill:none;stroke-width:1.2;stroke-linecap:butt;stroke-linejoin:miter;stroke:rgb(0%,0%,0%);stroke-opacity:1;stroke-miterlimit:10;" d="M 122.914062 221.515625 L 96.605469 232.59375 "/>
<path style="fill:none;stroke-width:1.2;stroke-linecap:butt;stroke-linejoin:miter;stroke:rgb(0%,0%,0%);stroke-opacity:1;stroke-miterlimit:10;" d="M 166.800781 178.613281 L 197.335938 197.078125 "/>
<path style="fill:none;stroke-width:1.2;stroke-linecap:butt;stroke-linejoin:miter;stroke:rgb(0%,0%,0%);stroke-opacity:1;stroke-miterlimit:10;" d="M 174.925781 143.863281 L 166.800781 178.613281 "/>
<path style="fill:none;stroke-width:1.2;stroke-linecap:butt;stroke-linejoin:miter;stroke:rgb(0%,0%,0%);stroke-opacity:1;stroke-miterlimit:10;" d="M 182.289062 149.25 L 175.789062 177.050781 "/>
<path style="fill:none;stroke-width:1.2;stroke-linecap:butt;stroke-linejoin:miter;stroke:rgb(0%,0%,0%);stroke-opacity:1;stroke-miterlimit:10;" d="M 197.335938 197.078125 L 200.691406 214.601562 "/>
<path style="fill:none;stroke-width:1.2;stroke-linecap:butt;stroke-linejoin:miter;stroke:rgb(0%,0%,100%);stroke-opacity:1;stroke-miterlimit:10;" d="M 200.691406 214.601562 L 204.042969 232.125 "/>
<path style="fill:none;stroke-width:1.2;stroke-linecap:butt;stroke-linejoin:miter;stroke:rgb(0%,0%,0%);stroke-opacity:1;stroke-miterlimit:10;" d="M 206.253906 199.003906 L 208.9375 213.023438 "/>
<path style="fill:none;stroke-width:1.2;stroke-linecap:butt;stroke-linejoin:miter;stroke:rgb(0%,0%,100%);stroke-opacity:1;stroke-miterlimit:10;" d="M 208.9375 213.023438 L 211.621094 227.042969 "/>
<path style="fill:none;stroke-width:1.2;stroke-linecap:butt;stroke-linejoin:miter;stroke:rgb(0%,0%,0%);stroke-opacity:1;stroke-miterlimit:10;" d="M 224.332031 173.742188 L 197.335938 197.078125 "/>
<path style="fill:none;stroke-width:1.2;stroke-linecap:butt;stroke-linejoin:miter;stroke:rgb(0%,0%,100%);stroke-opacity:1;stroke-miterlimit:10;" d="M 204.042969 232.125 L 220.898438 237.980469 "/>
<path style="fill:none;stroke-width:1.2;stroke-linecap:butt;stroke-linejoin:miter;stroke:rgb(0%,0%,0%);stroke-opacity:1;stroke-miterlimit:10;" d="M 220.898438 237.980469 L 237.753906 243.839844 "/>
<path style=" stroke:none;fill-rule:nonzero;fill:rgb(100%,100%,100%);fill-opacity:1;" d="M 199.042969 223.125 L 210.042969 223.125 L 210.042969 241.125 L 199.042969 241.125 Z M 199.042969 223.125 "/>
<g style="fill:rgb(0%,0%,100%);fill-opacity:1;">
  <use xlink:href="#glyph0-2" x="199.042969" y="236.739258"/>
</g>
<path style="fill:none;stroke-width:1.2;stroke-linecap:butt;stroke-linejoin:miter;stroke:rgb(0%,0%,0%);stroke-opacity:1;stroke-miterlimit:10;" d="M 237.753906 243.839844 L 264.75 220.503906 "/>
<path style="fill:none;stroke-width:1.2;stroke-linecap:butt;stroke-linejoin:miter;stroke:rgb(0%,0%,0%);stroke-opacity:1;stroke-miterlimit:10;" d="M 234.960938 235.152344 L 256.558594 216.484375 "/>
<path style="fill:none;stroke-width:1.2;stroke-linecap:butt;stroke-linejoin:miter;stroke:rgb(0%,0%,0%);stroke-opacity:1;stroke-miterlimit:10;" d="M 264.75 220.503906 L 258.039062 185.457031 "/>
<path style="fill:none;stroke-width:1.2;stroke-linecap:butt;stroke-linejoin:miter;stroke:rgb(0%,0%,0%);stroke-opacity:1;stroke-miterlimit:10;" d="M 258.039062 185.457031 L 224.332031 173.742188 "/>
<path style="fill:none;stroke-width:1.2;stroke-linecap:butt;stroke-linejoin:miter;stroke:rgb(0%,0%,0%);stroke-opacity:1;stroke-miterlimit:10;" d="M 251.914062 192.214844 L 224.949219 182.84375 "/>
<path style="fill:none;stroke-width:1.2;stroke-linecap:butt;stroke-linejoin:miter;stroke:rgb(0%,0%,0%);stroke-opacity:1;stroke-miterlimit:10;" d="M 224.332031 173.742188 L 217.40625 157.296875 "/>
<path style="fill:none;stroke-width:1.2;stroke-linecap:butt;stroke-linejoin:miter;stroke:rgb(0%,0%,100%);stroke-opacity:1;stroke-miterlimit:10;" d="M 217.40625 157.296875 L 210.484375 140.855469 "/>
<path style="fill:none;stroke-width:1.2;stroke-linecap:butt;stroke-linejoin:miter;stroke:rgb(0%,0%,100%);stroke-opacity:1;stroke-miterlimit:10;" d="M 210.484375 140.855469 L 219.714844 125.585938 "/>
<path style="fill:none;stroke-width:1.2;stroke-linecap:butt;stroke-linejoin:miter;stroke:rgb(0%,0%,0%);stroke-opacity:1;stroke-miterlimit:10;" d="M 219.714844 125.585938 L 228.949219 110.320312 "/>
<path style="fill:none;stroke-width:1.2;stroke-linecap:butt;stroke-linejoin:miter;stroke:rgb(0%,0%,100%);stroke-opacity:1;stroke-miterlimit:10;" d="M 210.484375 140.855469 L 192.703125 142.359375 "/>
<path style="fill:none;stroke-width:1.2;stroke-linecap:butt;stroke-linejoin:miter;stroke:rgb(0%,0%,0%);stroke-opacity:1;stroke-miterlimit:10;" d="M 192.703125 142.359375 L 174.925781 143.863281 "/>
<path style=" stroke:none;fill-rule:nonzero;fill:rgb(100%,100%,100%);fill-opacity:1;" d="M 205.484375 131.855469 L 216.484375 131.855469 L 216.484375 149.855469 L 205.484375 149.855469 Z M 205.484375 131.855469 "/>
<g style="fill:rgb(0%,0%,100%);fill-opacity:1;">
  <use xlink:href="#glyph0-2" x="205.484375" y="145.469727"/>
</g>
<path style="fill:none;stroke-width:1.2;stroke-linecap:butt;stroke-linejoin:miter;stroke:rgb(0%,0%,0%);stroke-opacity:1;stroke-miterlimit:10;" d="M 228.949219 110.320312 L 211.734375 79.058594 "/>
<path style="fill:none;stroke-width:1.2;stroke-linecap:butt;stroke-linejoin:miter;stroke:rgb(0%,0%,0%);stroke-opacity:1;stroke-miterlimit:10;" d="M 174.925781 143.863281 L 151.589844 116.867188 "/>
<path style="fill:none;stroke-width:1.2;stroke-linecap:butt;stroke-linejoin:miter;stroke:rgb(0%,0%,0%);stroke-opacity:1;stroke-miterlimit:10;" d="M 151.589844 116.867188 L 163.304688 83.160156 "/>
<path style="fill:none;stroke-width:1.2;stroke-linecap:butt;stroke-linejoin:miter;stroke:rgb(0%,0%,0%);stroke-opacity:1;stroke-miterlimit:10;" d="M 144.828125 110.738281 L 154.199219 83.773438 "/>
<path style="fill:none;stroke-width:1.2;stroke-linecap:butt;stroke-linejoin:miter;stroke:rgb(0%,0%,0%);stroke-opacity:1;stroke-miterlimit:10;" d="M 116.542969 123.578125 L 151.589844 116.867188 "/>
<path style="fill:none;stroke-width:1.2;stroke-linecap:butt;stroke-linejoin:miter;stroke:rgb(0%,0%,0%);stroke-opacity:1;stroke-miterlimit:10;" d="M 163.304688 83.160156 L 139.96875 56.160156 "/>
<path style="fill:none;stroke-width:1.2;stroke-linecap:butt;stroke-linejoin:miter;stroke:rgb(0%,0%,0%);stroke-opacity:1;stroke-miterlimit:10;" d="M 139.96875 56.160156 L 122.445312 59.515625 "/>
<path style="fill:none;stroke-width:1.2;stroke-linecap:butt;stroke-linejoin:miter;stroke:rgb(0%,0%,100%);stroke-opacity:1;stroke-miterlimit:10;" d="M 122.445312 59.515625 L 104.917969 62.871094 "/>
<path style="fill:none;stroke-width:1.2;stroke-linecap:butt;stroke-linejoin:miter;stroke:rgb(0%,0%,0%);stroke-opacity:1;stroke-miterlimit:10;" d="M 138.042969 65.078125 L 124.023438 67.761719 "/>
<path style="fill:none;stroke-width:1.2;stroke-linecap:butt;stroke-linejoin:miter;stroke:rgb(0%,0%,100%);stroke-opacity:1;stroke-miterlimit:10;" d="M 124.023438 67.761719 L 110.003906 70.445312 "/>
<path style="fill:none;stroke-width:1.2;stroke-linecap:butt;stroke-linejoin:miter;stroke:rgb(0%,0%,100%);stroke-opacity:1;stroke-miterlimit:10;" d="M 104.917969 62.871094 L 99.0625 79.726562 "/>
<path style="fill:none;stroke-width:1.2;stroke-linecap:butt;stroke-linejoin:miter;stroke:rgb(0%,0%,0%);stroke-opacity:1;stroke-miterlimit:10;" d="M 99.0625 79.726562 L 93.207031 96.578125 "/>
<path style=" stroke:none;fill-rule:nonzero;fill:rgb(100%,100%,100%);fill-opacity:1;" d="M 99.917969 53.871094 L 110.917969 53.871094 L 110.917969 71.871094 L 99.917969 71.871094 Z M 99.917969 53.871094 "/>
<g style="fill:rgb(0%,0%,100%);fill-opacity:1;">
  <use xlink:href="#glyph0-2" x="99.917969" y="67.485352"/>
</g>
<path style="fill:none;stroke-width:1.2;stroke-linecap:butt;stroke-linejoin:miter;stroke:rgb(0%,0%,0%);stroke-opacity:1;stroke-miterlimit:10;" d="M 93.207031 96.578125 L 116.542969 123.578125 "/>
<path style="fill:none;stroke-width:1.2;stroke-linecap:butt;stroke-linejoin:miter;stroke:rgb(0%,0%,0%);stroke-opacity:1;stroke-miterlimit:10;" d="M 101.890625 93.789062 L 120.558594 115.386719 "/>
</g>
</svg>

<svg xmlns="http://www.w3.org/2000/svg" xmlns:xlink="http://www.w3.org/1999/xlink" width="300pt" height="300pt" viewBox="0 0 300 300"><defs><symbol overflow="visible"><path d="M.75 2.656v-13.234h7.5V2.656zm.844-.844h5.812V-9.733H1.594zm0 0"/></symbol><symbol overflow="visible" id="a"><path d="M1.47-10.938h6.28v1.25H2.953v3.22H7.28v1.25H2.954V0H1.47zm0 0"/></symbol><symbol overflow="visible" id="b"><path d="M1.47-10.938h2L8.31-1.78v-9.158H9.75V0h-2L2.906-9.14V0H1.47zm0 0"/></symbol></defs><g><path fill="#fff" d="M0 0h300v300H0z"/><path d="M35.25 234.012l16.445-6.926" stroke-width="1.2" stroke="#3cc" stroke-miterlimit="10" fill="none"/><path d="M51.695 227.086l16.442-6.926" stroke-width="1.2" stroke="#000" stroke-miterlimit="10" fill="none"/><path d="M26.25 225.012h9v18h-9zm0 0" fill="#fff"/><use xlink:href="#a" x="26.25" y="238.626" fill="#3cc"/><path d="M68.137 220.16l4.45-35.406M76.914 217.668l3.56-28.324M96.574 241.72l-28.437-21.56M72.586 184.754l32.887-13.848M105.473 170.906l28.437 21.555M103.246 179.754l22.75 17.242M133.91 192.46l-4.45 35.407M133.91 192.46l32.89-13.847M129.46 227.867L96.575 241.72M122.914 221.516l-26.31 11.078M166.8 178.613l30.536 18.465M174.926 143.863l-8.125 34.75M182.29 149.25l-6.5 27.8M197.336 197.078l3.355 17.524" stroke-width="1.2" stroke="#000" stroke-miterlimit="10" fill="none"/><path d="M200.69 214.602l3.353 17.523" stroke-width="1.2" stroke="#00f" stroke-miterlimit="10" fill="none"/><path d="M206.254 199.004l2.684 14.02" stroke-width="1.2" stroke="#000" stroke-miterlimit="10" fill="none"/><path d="M208.938 213.023l2.683 14.02" stroke-width="1.2" stroke="#00f" stroke-miterlimit="10" fill="none"/><path d="M224.332 173.742l-26.996 23.336" stroke-width="1.2" stroke="#000" stroke-miterlimit="10" fill="none"/><path d="M204.043 232.125l16.855 5.855" stroke-width="1.2" stroke="#00f" stroke-miterlimit="10" fill="none"/><path d="M220.898 237.98l16.856 5.86" stroke-width="1.2" stroke="#000" stroke-miterlimit="10" fill="none"/><path d="M199.043 223.125h11v18h-11zm0 0" fill="#fff"/><use xlink:href="#b" x="199.043" y="236.739" fill="#00f"/><path d="M237.754 243.84l26.996-23.336M234.96 235.152l21.6-18.668M264.75 220.504l-6.71-35.047M258.04 185.457l-33.708-11.715M251.914 192.215l-26.965-9.37M224.332 173.742l-6.926-16.445" stroke-width="1.2" stroke="#000" stroke-miterlimit="10" fill="none"/><path d="M217.406 157.297l-6.922-16.442M210.484 140.855l9.23-15.27" stroke-width="1.2" stroke="#00f" stroke-miterlimit="10" fill="none"/><path d="M219.715 125.586l9.234-15.266" stroke-width="1.2" stroke="#000" stroke-miterlimit="10" fill="none"/><path d="M210.484 140.855l-17.78 1.504" stroke-width="1.2" stroke="#00f" stroke-miterlimit="10" fill="none"/><path d="M192.703 142.36l-17.777 1.503" stroke-width="1.2" stroke="#000" stroke-miterlimit="10" fill="none"/><path d="M205.484 131.855h11v18h-11zm0 0" fill="#fff"/><use xlink:href="#b" x="205.484" y="145.47" fill="#00f"/><path d="M228.95 110.32l-17.216-31.26M174.926 143.863l-23.336-26.996M151.59 116.867l11.715-33.707M144.828 110.738l9.37-26.965M116.543 123.578l35.047-6.71M163.305 83.16l-23.336-27M139.97 56.16l-17.525 3.356" stroke-width="1.2" stroke="#000" stroke-miterlimit="10" fill="none"/><path d="M122.445 59.516l-17.527 3.355" stroke-width="1.2" stroke="#00f" stroke-miterlimit="10" fill="none"/><path d="M138.043 65.078l-14.02 2.684" stroke-width="1.2" stroke="#000" stroke-miterlimit="10" fill="none"/><path d="M124.023 67.762l-14.02 2.683M104.918 62.87l-5.856 16.857" stroke-width="1.2" stroke="#00f" stroke-miterlimit="10" fill="none"/><path d="M99.063 79.727l-5.856 16.85" stroke-width="1.2" stroke="#000" stroke-miterlimit="10" fill="none"/><path d="M99.918 53.87h11v18h-11zm0 0" fill="#fff"/><use xlink:href="#b" x="99.918" y="67.485" fill="#00f"/><path d="M93.207 96.578l23.336 27M101.89 93.79l18.67 21.597" stroke-width="1.2" stroke="#000" stroke-miterlimit="10" fill="none"/></g></svg>
